demos/printerdemo/ui/images/mcu/settings.svg

<svg fill="none" height="20" viewBox="0 0 20 20" width="20" xmlns="http://www.w3.org/2000/svg"><g stroke="#90a1b9" stroke-linecap="round" stroke-linejoin="round" stroke-width="1.66667"><path d="m10.1833 1.66666h-.36663c-.44203 0-.86595.17559-1.17851.48815s-.48816.73649-.48816 1.17851v.15c-.0003.29227-.07745.57933-.22372.83237-.14626.25304-.3565.46316-.60961.6093l-.35833.20833c-.25337.14628-.54078.22329-.83334.22329s-.57997-.07701-.83333-.22329l-.125-.06666c-.38245-.22062-.8368-.28047-1.26333-.16641-.42653.11405-.79038.39269-1.01167.77474l-.18334.31667c-.22061.38244-.28046.8368-.16641 1.26333.11406.42653.39269.79037.77475 1.01167l.125.08333c.25189.14543.46135.35424.60754.60569s.22404.53679.22579.82764v.42498c.00117.2937-.07529.5825-.22163.8371s-.35736.4661-.6117.6129l-.125.075c-.38206.2213-.66069.5852-.77475 1.0117-.11405.4265-.0542.8809.16641 1.2633l.18334.3167c.22129.382.58514.6607 1.01167.7747.42653.1141.88088.0542 1.26333-.1664l.125-.0666c.25336-.1463.54077-.2233.83333-.2233s.57997.077.83334.2233l.35833.2083c.25311.1461.46335.3563.60961.6093.14627.253.22342.5401.22372.8324v.15c0 .442.1756.8659.48816 1.1785.31256.3125.73648.4881 1.17851.4881h.36663c.4421 0 .866-.1756 1.1785-.4881.3126-.3126.4882-.7365.4882-1.1785v-.15c.0003-.2923.0775-.5794.2237-.8324.1463-.253.3565-.4632.6096-.6093l.3584-.2083c.2533-.1463.5407-.2233.8333-.2233s.58.077.8333.2233l.125.0666c.3825.2206.8368.2805 1.2634.1664.4265-.114.7903-.3927 1.0116-.7747l.1834-.325c.2206-.3825.2804-.8368.1664-1.2633-.1141-.4266-.3927-.7904-.7748-1.0117l-.125-.0667c-.2543-.1468-.4653-.3583-.6117-.6129-.1463-.2546-.2228-.5434-.2216-.8371v-.41664c-.0012-.29369.0753-.58246.2216-.83709.1464-.25463.3574-.46607.6117-.61291l.125-.075c.3821-.2213.6607-.58514.7748-1.01167.114-.42653.0542-.88089-.1664-1.26333l-.1834-.31667c-.2213-.38205-.5851-.66069-1.0116-.77474-.4266-.11406-.8809-.05421-1.2634.16641l-.125.06666c-.2533.14628-.5407.22329-.8333.22329s-.58-.07701-.8333-.22329l-.3584-.20833c-.2531-.14614-.4633-.35626-.6096-.6093-.1462-.25304-.2234-.5401-.2237-.83237v-.15c0-.44202-.1756-.86595-.4882-1.17851-.3125-.31256-.7364-.48815-1.1785-.48815z"/><path d="m10 12.5c1.3807 0 2.5-1.1193 2.5-2.5 0-1.38071-1.1193-2.5-2.5-2.5-1.38071 0-2.5 1.11929-2.5 2.5 0 1.3807 1.11929 2.5 2.5 2.5z"/></g></svg>

<svg width="20" height="20" viewBox="0 0 20 20" fill="none" xmlns="http://www.w3.org/2000/svg">
<path d="M10.1833 1.66666H9.81667C9.37464 1.66666 8.95072 1.84225 8.63816 2.15481C8.3256 2.46737 8.15 2.8913 8.15 3.33332V3.48332C8.1497 3.77559 8.07255 4.06265 7.92628 4.31569C7.78002 4.56873 7.56978 4.77885 7.31667 4.92499L6.95834 5.13332C6.70497 5.2796 6.41756 5.35661 6.125 5.35661C5.83244 5.35661 5.54503 5.2796 5.29167 5.13332L5.16667 5.06666C4.78422 4.84604 4.32987 4.78619 3.90334 4.90025C3.47681 5.0143 3.11296 5.29294 2.89167 5.67499L2.70833 5.99166C2.48772 6.3741 2.42787 6.82846 2.54192 7.25499C2.65598 7.68152 2.93461 8.04536 3.31667 8.26666L3.44167 8.34999C3.69356 8.49542 3.90302 8.70423 4.04921 8.95568C4.1954 9.20713 4.27325 9.49247 4.275 9.78332V10.2083C4.27617 10.502 4.19971 10.7908 4.05337 11.0454C3.90703 11.3 3.69601 11.5115 3.44167 11.6583L3.31667 11.7333C2.93461 11.9546 2.65598 12.3185 2.54192 12.745C2.42787 13.1715 2.48772 13.6259 2.70833 14.0083L2.89167 14.325C3.11296 14.707 3.47681 14.9857 3.90334 15.0997C4.32987 15.2138 4.78422 15.1539 5.16667 14.9333L5.29167 14.8667C5.54503 14.7204 5.83244 14.6434 6.125 14.6434C6.41756 14.6434 6.70497 14.7204 6.95834 14.8667L7.31667 15.075C7.56978 15.2211 7.78002 15.4313 7.92628 15.6843C8.07255 15.9373 8.1497 16.2244 8.15 16.5167V16.6667C8.15 17.1087 8.3256 17.5326 8.63816 17.8452C8.95072 18.1577 9.37464 18.3333 9.81667 18.3333H10.1833C10.6254 18.3333 11.0493 18.1577 11.3618 17.8452C11.6744 17.5326 11.85 17.1087 11.85 16.6667V16.5167C11.8503 16.2244 11.9275 15.9373 12.0737 15.6843C12.22 15.4313 12.4302 15.2211 12.6833 15.075L13.0417 14.8667C13.295 14.7204 13.5824 14.6434 13.875 14.6434C14.1676 14.6434 14.455 14.7204 14.7083 14.8667L14.8333 14.9333C15.2158 15.1539 15.6701 15.2138 16.0967 15.0997C16.5232 14.9857 16.887 14.707 17.1083 14.325L17.2917 14C17.5123 13.6175 17.5721 13.1632 17.4581 12.7367C17.344 12.3101 17.0654 11.9463 16.6833 11.725L16.5583 11.6583C16.304 11.5115 16.093 11.3 15.9466 11.0454C15.8003 10.7908 15.7238 10.502 15.725 10.2083V9.79166C15.7238 9.49797 15.8003 9.2092 15.9466 8.95457C16.093 8.69994 16.304 8.4885 16.5583 8.34166L16.6833 8.26666C17.0654 8.04536 17.344 7.68152 17.4581 7.25499C17.5721 6.82846 17.5123 6.3741 17.2917 5.99166L17.1083 5.67499C16.887 5.29294 16.5232 5.0143 16.0967 4.90025C15.6701 4.78619 15.2158 4.84604 14.8333 5.06666L14.7083 5.13332C14.455 5.2796 14.1676 5.35661 13.875 5.35661C13.5824 5.35661 13.295 5.2796 13.0417 5.13332L12.6833 4.92499C12.4302 4.77885 12.22 4.56873 12.0737 4.31569C11.9275 4.06265 11.8503 3.77559 11.85 3.48332V3.33332C11.85 2.8913 11.6744 2.46737 11.3618 2.15481C11.0493 1.84225 10.6254 1.66666 10.1833 1.66666Z" stroke="#90A1B9" stroke-width="1.66667" stroke-linecap="round" stroke-linejoin="round"/>
<path d="M10 12.5C11.3807 12.5 12.5 11.3807 12.5 10C12.5 8.61929 11.3807 7.5 10 7.5C8.61929 7.5 7.5 8.61929 7.5 10C7.5 11.3807 8.61929 12.5 10 12.5Z" stroke="#90A1B9" stroke-width="1.66667" stroke-linecap="round" stroke-linejoin="round"/>
</svg>
